static/illustrations/facebook.svg

<svg height="21" viewBox="0 0 21 21" width="21" xmlns="http://www.w3.org/2000/svg"><path d="m18.375 0h-15.75a2.628 2.628 0 0 0 -2.625 2.625v15.75a2.628 2.628 0 0 0 2.625 2.625h15.75a2.628 2.628 0 0 0 2.625-2.625v-15.75a2.628 2.628 0 0 0 -2.625-2.625z" fill="#1976d2"/><path d="m201.844 102.563h-3.281v-2.625c0-.724.588-.656 1.313-.656h1.313v-3.282h-2.625a3.937 3.937 0 0 0 -3.937 3.938v2.625h-2.627v3.281h2.625v7.219h3.938v-7.219h1.969z" fill="#fafafa" transform="translate(-184.125 -92.063)"/></svg>

<svg id="facebook" xmlns="http://www.w3.org/2000/svg" width="21" height="21" viewBox="0 0 21 21">
  <path id="Path_403" data-name="Path 403" d="M18.375,0H2.625A2.628,2.628,0,0,0,0,2.625v15.75A2.628,2.628,0,0,0,2.625,21h15.75A2.628,2.628,0,0,0,21,18.375V2.625A2.628,2.628,0,0,0,18.375,0Z" fill="#1976d2"/>
  <path id="Path_404" data-name="Path 404" d="M201.844,102.563h-3.281V99.938c0-.724.588-.656,1.313-.656h1.313V96h-2.625a3.937,3.937,0,0,0-3.937,3.938v2.625H192v3.281h2.625v7.219h3.938v-7.219h1.969Z" transform="translate(-184.125 -92.063)" fill="#fafafa"/>
</svg>
